third_party/noto/noto_2/emoji_u1f32b.svg

<svg enable-background="new 0 0 128 128" version="1.1" viewBox="0 0 128 128" xmlns="http://www.w3.org/2000/svg"><path d="m116.62 124.26h-105.3c-4.15 0-7.52-3.37-7.52-7.52v-105.3c0-4.15 3.37-7.52 7.52-7.52h105.3c4.15 0 7.52 3.37 7.52 7.52v105.3c0.01 4.15-3.36 7.52-7.52 7.52z" fill="#CFD9DB"/><radialGradient id="e" cx="100.3" cy="-12.506" r="39.73" gradientUnits="userSpaceOnUse"><stop stop-color="#E7EBEB" offset=".4053"/><stop stop-color="#E3E9E9" offset=".6119"/><stop stop-color="#D7E1E4" offset=".815"/><stop stop-color="#C8D8DD" offset=".9777"/></radialGradient><path d="m69.27 17.28s4.67-6.34 7.54-9.22 4.87-4.15 4.87-4.15h34.93c4.15 0 7.52 3.37 7.52 7.52v24.32l-54.86-18.47z" fill="url(#e)"/><radialGradient id="d" cx="48.275" cy="-9.3212" r="63.7" gradientUnits="userSpaceOnUse"><stop stop-color="#E7EBEB" offset=".4053"/><stop stop-color="#E3E9E9" offset=".6119"/><stop stop-color="#D7E1E4" offset=".815"/><stop stop-color="#C8D8DD" offset=".9777"/></radialGradient><path d="m40.03 3.91h-28.7c-4.15 0-7.52 3.37-7.52 7.52v59.81s69.54 8.1 83.28 6.07l3.21-58.73s-6.87-7.78-22.63-8.07c-7.2-0.13-16.53 2.8-17.65 2.08-1.29-0.82-3.92-6.84-9.99-8.68z" fill="url(#d)"/><radialGradient id="c" cx="93.334" cy="-65.53" r="135.29" fx="82.028" fy="-62.967" gradientUnits="userSpaceOnUse"><stop stop-color="#F4F4F5" offset=".7844"/><stop stop-color="#EEF1F2" offset=".8337"/><stop stop-color="#DDE7EA" offset=".9002"/><stop stop-color="#C1D8DC" offset=".9762"/><stop stop-color="#C0D8DC" offset=".9777"/></radialGradient><path d="m47.63 102.24-25.26-48.57s2.06-17.44 19.64-25.26c15.55-6.91 26.99-1.73 26.99-1.73s11.66-14.94 31.52-13.82c19 1.08 23.63 9.28 23.63 9.28v94.59c0 4.16-76.52-14.49-76.52-14.49z" fill="url(#c)"/><radialGradient id="b" cx="12.54" cy="22.388" r="108.71" gradientTransform="matrix(.2531 .9674 -1.5506 .4056 44.082 1.175)" gradientUnits="userSpaceOnUse"><stop stop-color="#F1F1F0" offset=".4708"/><stop stop-color="#ECEEEE" offset=".5774"/><stop stop-color="#DEE7E8" offset=".7028"/><stop stop-color="#C6DBDF" offset=".8371"/><stop stop-color="#C0D8DC" offset=".8671"/></radialGradient><path d="m124.15 77.69v39.05c0 4.15-3.37 7.52-7.52 7.52h-105.31c-4.15 0-7.52-3.37-7.52-7.52v-75.95s5.32 0.46 12.94 4.58c7.58 4.09 12.05 10.07 12.05 10.07s11.4-7.14 27.91-4.12c18 3.29 28.67 20.59 28.67 20.59s9-2.59 20.44-0.92 18.34 6.7 18.34 6.7z" fill="url(#b)"/><radialGradient id="a" cx="78.112" cy="91.268" r="35.926" gradientTransform="matrix(.3939 .9191 -2.2871 .9802 256.08 -69.988)" gradientUnits="userSpaceOnUse"><stop stop-color="#F1F1F0" offset=".2664"/><stop stop-color="#D9E5E6" offset=".6494"/><stop stop-color="#C0D8DC" offset="1"/></radialGradient><path d="m124.15 85.01v31.73c0 4.15-3.37 7.52-7.52 7.52h-88.03s8.57-10.52 22.5-15.16c14.34-4.78 22.7-4.18 22.7-4.18s7.83-10.97 21.9-16.13c14.14-5.18 28.45-3.78 28.45-3.78z" fill="url(#a)"/></svg>

<?xml version="1.0" encoding="utf-8"?>
<!-- Generator: Adobe Illustrator 25.2.3, SVG Export Plug-In . SVG Version: 6.00 Build 0)  -->
<svg version="1.1" id="Layer_2" xmlns="http://www.w3.org/2000/svg" xmlns:xlink="http://www.w3.org/1999/xlink" x="0px" y="0px"
	 viewBox="0 0 128 128" style="enable-background:new 0 0 128 128;" xml:space="preserve">
<path style="fill:#CFD9DB;" d="M116.62,124.26H11.32c-4.15,0-7.52-3.37-7.52-7.52V11.44c0-4.15,3.37-7.52,7.52-7.52h70.37h34.93
	c4.15,0,7.52,3.37,7.52,7.52v24.32v80.98C124.15,120.89,120.78,124.26,116.62,124.26z"/>
<radialGradient id="SVGID_1_" cx="100.2976" cy="-12.5055" r="39.7301" gradientUnits="userSpaceOnUse">
	<stop  offset="0.4053" style="stop-color:#E7EBEB"/>
	<stop  offset="0.6119" style="stop-color:#E3E9E9"/>
	<stop  offset="0.815" style="stop-color:#D7E1E4"/>
	<stop  offset="0.9777" style="stop-color:#C8D8DD"/>
</radialGradient>
<path style="fill:url(#SVGID_1_);" d="M69.27,17.28c0,0,4.67-6.34,7.54-9.22s4.87-4.15,4.87-4.15h34.93c4.15,0,7.52,3.37,7.52,7.52
	v24.32L69.27,17.28z"/>
<radialGradient id="SVGID_2_" cx="48.2753" cy="-9.3212" r="63.6998" gradientUnits="userSpaceOnUse">
	<stop  offset="0.4053" style="stop-color:#E7EBEB"/>
	<stop  offset="0.6119" style="stop-color:#E3E9E9"/>
	<stop  offset="0.815" style="stop-color:#D7E1E4"/>
	<stop  offset="0.9777" style="stop-color:#C8D8DD"/>
</radialGradient>
<path style="fill:url(#SVGID_2_);" d="M40.03,3.91h-28.7c-4.15,0-7.52,3.37-7.52,7.52v59.81c0,0,69.54,8.1,83.28,6.07l3.21-58.73
	c0,0-6.87-7.78-22.63-8.07c-7.2-0.13-16.53,2.8-17.65,2.08C48.73,11.77,46.1,5.75,40.03,3.91z"/>
<radialGradient id="SVGID_3_" cx="93.3341" cy="-65.5305" r="135.286" fx="82.0278" fy="-62.9666" gradientUnits="userSpaceOnUse">
	<stop  offset="0.7844" style="stop-color:#F4F4F5"/>
	<stop  offset="0.8337" style="stop-color:#EEF1F2"/>
	<stop  offset="0.9002" style="stop-color:#DDE7EA"/>
	<stop  offset="0.9762" style="stop-color:#C1D8DC"/>
	<stop  offset="0.9777" style="stop-color:#C0D8DC"/>
</radialGradient>
<path style="fill:url(#SVGID_3_);" d="M47.63,102.24L22.37,53.67c0,0,2.06-17.44,19.64-25.26C57.56,21.5,69,26.68,69,26.68
	s11.66-14.94,31.52-13.82c19,1.08,23.63,9.28,23.63,9.28v94.59C124.15,120.89,47.63,102.24,47.63,102.24z"/>
<radialGradient id="SVGID_4_" cx="12.5401" cy="22.3881" r="108.7081" gradientTransform="matrix(0.2531 0.9674 -1.5506 0.4056 44.0823 1.175)" gradientUnits="userSpaceOnUse">
	<stop  offset="0.4708" style="stop-color:#F1F1F0"/>
	<stop  offset="0.5774" style="stop-color:#ECEEEE"/>
	<stop  offset="0.7028" style="stop-color:#DEE7E8"/>
	<stop  offset="0.8371" style="stop-color:#C6DBDF"/>
	<stop  offset="0.8671" style="stop-color:#C0D8DC"/>
</radialGradient>
<path style="fill:url(#SVGID_4_);" d="M124.15,77.69v39.05c0,4.15-3.37,7.52-7.52,7.52H11.32c-4.15,0-7.52-3.37-7.52-7.52V40.79
	c0,0,5.32,0.46,12.94,4.58c7.58,4.09,12.05,10.07,12.05,10.07s11.4-7.14,27.91-4.12c18,3.29,28.67,20.59,28.67,20.59
	s9-2.59,20.44-0.92S124.15,77.69,124.15,77.69z"/>
<radialGradient id="SVGID_5_" cx="78.1122" cy="91.2683" r="35.9261" gradientTransform="matrix(0.3939 0.9191 -2.2871 0.9802 256.0816 -69.9879)" gradientUnits="userSpaceOnUse">
	<stop  offset="0.2664" style="stop-color:#F1F1F0"/>
	<stop  offset="0.6494" style="stop-color:#D9E5E6"/>
	<stop  offset="1" style="stop-color:#C0D8DC"/>
</radialGradient>
<path style="fill:url(#SVGID_5_);" d="M124.15,85.01v31.73c0,4.15-3.37,7.52-7.52,7.52H28.6c0,0,8.57-10.52,22.5-15.16
	c14.34-4.78,22.7-4.18,22.7-4.18s7.83-10.97,21.9-16.13C109.84,83.61,124.15,85.01,124.15,85.01z"/>
</svg>
